src/objects/mail/1F4E8.svg

<svg id="emoji" viewBox="0 0 72 72" xmlns="http://www.w3.org/2000/svg">
  <g id="grid">
    <path fill="#b3b3b3" d="M68,4V68H4V4H68m4-4H0V72H72V0Z"/>
    <path fill="none" stroke="#00a5ff" stroke-miterlimit="10" stroke-width="0.1" d="M12.923,10.9583H59.0769A1.9231,1.9231,0,0,1,61,12.8814V59.0352a1.9231,1.9231,0,0,1-1.9231,1.9231H12.9231A1.9231,1.9231,0,0,1,11,59.0352V12.8813A1.923,1.923,0,0,1,12.923,10.9583Z"/>
    <rect x="16" y="4" rx="2.2537" width="40" height="64" fill="none" stroke="#00a5ff" stroke-miterlimit="10" stroke-width="0.1"/>
    <rect x="16" y="4" rx="2.2537" width="40" height="64" transform="translate(72) rotate(90)" fill="none" stroke="#00a5ff" stroke-miterlimit="10" stroke-width="0.1"/>
    <circle cx="36" cy="36" r="29" fill="none" stroke="#00a5ff" stroke-miterlimit="10" stroke-width="0.1"/>
  </g>
  <g id="color">
    <rect x="27.5987" y="23.8185" rx="1.5627" width="37.5107" height="23.4538" fill="#d0cfce"/>
    <path fill="#9b9b9a" d="M65.1522,24.5967V44.5922a4.1748,4.1748,0,0,1-.3759,1.729L56.282,38.5034l-.7517.0751-3.082-2.8565Z"/>
  </g>
  <g id="line">
    <line x1="5.7967" x2="22.1067" y1="41.904" y2="41.904" fill="none" stroke="#000" stroke-linecap="round" stroke-linejoin="round" stroke-width="2"/>
    <line x1="9.2917" x2="22.1067" y1="34.914" y2="34.914" fill="none" stroke="#000" stroke-linecap="round" stroke-linejoin="round" stroke-width="2"/>
    <path fill="none" stroke="#000" stroke-linecap="round" stroke-linejoin="round" stroke-width="2" d="M36.512,38.5785l-8.4192,7.7427a3.9028,3.9028,0,0,1-.451-1.729v-19.92"/>
    <path fill="none" stroke="#000" stroke-linecap="round" stroke-linejoin="round" stroke-width="2" d="M57.5383,39.399,64.83,46.11a3.5861,3.5861,0,0,0,.3226-1.4841V24.5967"/>
    <path fill="none" stroke="#000" stroke-linecap="round" stroke-linejoin="round" stroke-width="2" d="M55.4551,37.7517l9.2461,8.4943a1.6075,1.6075,0,0,1-1.3531.9772H29.3707a1.78,1.78,0,0,1-1.3531-.902l9.0957-8.344"/>
    <path fill="none" stroke="#000" stroke-linecap="round" stroke-linejoin="round" stroke-width="2" d="M65.1522,24.5967l-12.0274,11.05-3.3827,3.1572c-.15.15-.3759.3006-.5262.451a4.6338,4.6338,0,0,1-5.7882,0c-.15-.15-.3758-.3007-.5262-.451L39.5188,35.722l-11.877-11.05c0-.0752.0751-.0752.0751-.15A1.5333,1.5333,0,0,1,28.92,23.77H63.8743a1.6558,1.6558,0,0,1,1.2027.6766C65.077,24.5215,65.1522,24.5215,65.1522,24.5967Z"/>
  </g>
</svg>

<svg viewBox="0 0 72 72" xmlns="http://www.w3.org/2000/svg"><path fill="#b3b3b3" d="M68 4v64H4V4h64m4-4H0v72h72V0z"/><path fill="none" stroke="#00a5ff" stroke-miterlimit="10" stroke-width=".1" d="M12.923 10.958h46.154A1.923 1.923 0 0161 12.881v46.154a1.923 1.923 0 01-1.923 1.923H12.923A1.923 1.923 0 0111 59.035V12.881a1.923 1.923 0 011.923-1.923z"/><rect x="16" y="4" rx="2.254" width="40" height="64" fill="none" stroke="#00a5ff" stroke-miterlimit="10" stroke-width=".1"/><rect x="16" y="4" rx="2.254" width="40" height="64" transform="rotate(90 36 36)" fill="none" stroke="#00a5ff" stroke-miterlimit="10" stroke-width=".1"/><circle cx="36" cy="36" r="29" fill="none" stroke="#00a5ff" stroke-miterlimit="10" stroke-width=".1"/><g stroke-linecap="round" stroke-miterlimit="10" stroke-width="6" stroke="#fff" fill="none" stroke-linejoin="round"><path d="M5.797 41.904h16.31m-12.815-6.99h12.815m14.405 3.664l-8.42 7.743a3.903 3.903 0 01-.45-1.729v-19.92m29.896 14.727l7.292 6.711a3.586 3.586 0 00.323-1.484v-20.03"/><path d="M55.455 37.752l9.246 8.494a1.607 1.607 0 01-1.353.977H29.371a1.78 1.78 0 01-1.353-.902l9.095-8.344"/><path d="M65.152 24.597l-12.027 11.05-3.383 3.157c-.15.15-.376.3-.526.45a4.634 4.634 0 01-5.788 0c-.15-.15-.376-.3-.527-.45l-3.382-3.082-11.877-11.05c0-.075.075-.075.075-.15a1.533 1.533 0 011.203-.752h34.954a1.656 1.656 0 011.203.677c0 .075.075.075.075.15z"/></g><rect x="27.599" y="23.819" rx="1.563" width="37.511" height="23.454" fill="#d0cfce"/><path fill="#9b9b9a" d="M65.152 24.597v19.995a4.175 4.175 0 01-.376 1.73l-8.494-7.819-.752.075-3.082-2.856z"/><g fill="none" stroke="#000" stroke-linecap="round" stroke-linejoin="round" stroke-width="2"><path d="M5.797 41.904h16.31m-12.815-6.99h12.815m14.405 3.664l-8.42 7.743a3.903 3.903 0 01-.45-1.729v-19.92m29.896 14.727l7.292 6.711a3.586 3.586 0 00.323-1.484v-20.03"/><path d="M55.455 37.752l9.246 8.494a1.607 1.607 0 01-1.353.977H29.371a1.78 1.78 0 01-1.353-.902l9.095-8.344"/><path d="M65.152 24.597l-12.027 11.05-3.383 3.157c-.15.15-.376.3-.526.45a4.634 4.634 0 01-5.788 0c-.15-.15-.376-.3-.527-.45l-3.382-3.082-11.877-11.05c0-.075.075-.075.075-.15a1.533 1.533 0 011.203-.752h34.954a1.656 1.656 0 011.203.677c0 .075.075.075.075.15z"/></g></svg>
